src/Pure/16/symbolic/actions/pub-symbolic.svg

<?xml version="1.0" encoding="UTF-8" standalone="no"?>
<svg
   width="16px"
   height="16px"
   version="1.1"
   id="svg1"
   sodipodi:docname="pub-symbolic.svg"
   inkscape:version="1.4.2 (ebf0e940d0, 2025-05-08)"
   xmlns:inkscape="http://www.inkscape.org/namespaces/inkscape"
   xmlns:sodipodi="http://sodipodi.sourceforge.net/DTD/sodipodi-0.dtd"
   xmlns="http://www.w3.org/2000/svg"
   xmlns:svg="http://www.w3.org/2000/svg">
  <defs
     id="defs1">
    <style
      id="current-color-scheme"
      type="text/css">
      .ColorScheme-Text { color:#363636; }
    </style>
  </defs>
  <sodipodi:namedview
     id="namedview1"
     pagecolor="#ffffff"
     bordercolor="#000000"
     borderopacity="0.25"
     inkscape:showpageshadow="2"
     inkscape:pageopacity="0.0"
     inkscape:pagecheckerboard="0"
     inkscape:deskcolor="#d1d1d1"
     inkscape:zoom="49.6875"
     inkscape:cx="8"
     inkscape:cy="8"
     inkscape:window-width="1920"
     inkscape:window-height="1010"
     inkscape:window-x="0"
     inkscape:window-y="0"
     inkscape:window-maximized="1"
     inkscape:current-layer="svg1" />
  <path
     id="path1"
     style="fill:currentColor;fill-opacity:1"
     class="ColorScheme-Text"
     d="M 4.296875 1 C 3.187475 1 2.296875 1.89062 2.296875 3 L 5 3 L 5 7.5 C 5 7.77734 5.22266 8 5.5 8 C 5.77734 8 6 7.77734 6 7.5 L 6 3 L 12.019531 3 C 11.675781 2.40234 11.039105 2 10.296875 2 C 9.882815 2 9.4961013 2.1250037 9.1757812 2.3398438 C 8.9062513 1.5585937 8.171875 1 7.296875 1 C 6.695315 1 6.164075 1.26953 5.796875 1.6875 C 5.429685 1.26953 4.898435 1 4.296875 1 z M 2 4 L 2 11 C 2 12.662 3.338 14 5 14 L 9 14 C 10.3109 14 11.419878 13.16728 11.830078 12 L 12 12 C 13.662 12 15 10.662 15 9 L 15 7 C 15 5.338 13.662 4 12 4 L 11 4 L 11 11 C 11 12.108 10.108 13 9 13 L 5 13 C 3.892 13 3 12.108 3 11 L 3 4 L 2 4 z M 12 5 C 13.108 5 14 5.892 14 7 L 14 9 C 14 10.108 13.108 11 12 11 L 12 5 z M 1 15 L 1 16 L 15 16 L 15 15 L 1 15 z " />
</svg>

<svg width="16px" height="16px" version="1.1">
 <path d="m4.2969 1c-1.1094 0-2 0.89062-2 2h2.7031v4.5c0 0.27734 0.22266 0.5 0.5 0.5s0.5-0.22266 0.5-0.5v-4.5h6.0195c-0.34375-0.59766-0.98047-1-1.7227-1-0.41406 0-0.80078 0.125-1.1211 0.33984-0.26953-0.78125-1.0039-1.3398-1.8789-1.3398-0.60156 0-1.1328 0.26953-1.5 0.6875-0.36719-0.41797-0.89844-0.6875-1.5-0.6875zm-2.2969 3v3 2 2c0 1.662 1.338 3 3 3h4c1.3109 0 2.4199-0.83272 2.8301-2h0.16992c1.662 0 3-1.338 3-3v-2c0-1.662-1.338-3-3-3h-1v0.76562 4.2344 2c0 1.108-0.892 2-2 2h-4c-1.108 0-2-0.892-2-2v-2-4.2344-0.76562h-1zm10 1c1.108 0 2 0.892 2 2v2c0 1.108-0.892 2-2 2v-2-2-2zm-11 10v1h14v-1h-14z" fill="#363636"/>
</svg>
